assets/icon/icon_ios.svg

<?xml version="1.0" encoding="UTF-8"?>
<!-- Created with Inkscape (http://www.inkscape.org/) -->
<svg width="1024" height="1024" version="1.1" viewBox="0 0 270.93 270.93" xmlns="http://www.w3.org/2000/svg">
 <defs>
  <linearGradient id="paint0_linear" x2="220.37" y2="1138.5" gradientUnits="userSpaceOnUse">
   <stop stop-color="#005474" offset="0"/>
   <stop stop-color="#063752" offset="1"/>
  </linearGradient>
 </defs>
 <g transform="translate(107.5 82.639)">
  <g transform="matrix(.26458 0 0 .26458 -107.5 -82.639)">
   <rect width="1024" height="1024" fill="#fff"/>
   <path d="m0 0h1024v1024h-1024z" fill="url(#paint0_linear)"/>
   <path d="m829.07 728.87-32.33-29.356c-28.126 44.909-65.934 82.87-110.62 111.07-44.687 28.198-95.107 45.91-147.52 51.823-52.415 5.914-105.48-0.124-155.26-17.665-49.78-17.54-94.999-46.134-132.3-83.661-27.623-27.691-50.433-59.851-67.48-95.141 108.23 128.74 386.89 101.51 557.32-16.976l-49.196-44.209c139.15-56.946 170.8-135.46 171.48-136.88 18.693 88.359 6.66 180.5-34.085 261z" clip-rule="evenodd" fill="#94e7ff" fill-rule="evenodd"/>
   <path d="m148.06 511c-0.156-85.111 30.301-167.4 85.743-231.67l0.353-0.356c1.76-2.122 3.868-4.6 5.622-6.722 3.514-3.892 7.028-7.78 10.895-11.673 32.602-32.879 71.327-58.964 113.96-76.762s88.329-26.959 134.48-26.959 91.851 9.161 134.48 26.959c42.63 17.798 81.354 43.883 113.96 76.762 157.76 158.8-45.328 363.59-294.82 355.81v69.326l-214.71-154.94 214.7-154.89v70.029c70.98-10.966 196.43-43.151 159.53-132.99-49.898-124.15-405.16-95.493-464.19 198.07z" clip-rule="evenodd" fill="#00c5ff" fill-rule="evenodd"/>
  </g>
 </g>
</svg>

<svg width="1024" height="1024" viewBox="0 0 1024 1024" fill="none" xmlns="http://www.w3.org/2000/svg">
<rect width="1024" height="1024" fill="white"/>
<path d="M0 0H1024V1024H0V0Z" fill="url(#paint0_linear)"/>
<path fill-rule="evenodd" clip-rule="evenodd" d="M829.074 728.874L796.744 699.518C768.618 744.427 730.81 782.388 686.124 810.586C641.437 838.784 591.017 856.496 538.603 862.409C486.188 868.323 433.124 862.285 383.343 844.744C333.563 827.204 288.344 798.61 251.038 761.083C223.415 733.392 200.605 701.232 183.558 665.942C291.787 794.683 570.446 767.449 740.874 648.966L691.678 604.757C830.828 547.811 862.475 469.294 863.159 467.879C881.852 556.238 869.819 648.379 829.074 728.874Z" fill="#94E7FF"/>
<path fill-rule="evenodd" clip-rule="evenodd" d="M148.058 511.001C147.902 425.89 178.359 343.598 233.801 279.334L234.154 278.978C235.914 276.856 238.022 274.378 239.776 272.256C243.29 268.364 246.804 264.476 250.671 260.583C283.273 227.704 321.998 201.619 364.628 183.821C407.258 166.023 452.957 156.862 499.109 156.862C545.261 156.862 590.96 166.023 633.591 183.821C676.221 201.619 714.945 227.704 747.548 260.583C905.313 419.378 702.22 624.176 452.727 616.396V685.722L238.017 530.787L452.718 375.894V445.923C523.698 434.957 649.147 402.772 612.251 312.934C562.353 188.788 207.092 217.441 148.058 511.001Z" fill="#00C5FF"/>
<defs>
<linearGradient id="paint0_linear" x1="0" y1="0" x2="220.368" y2="1138.51" gradientUnits="userSpaceOnUse">
<stop stop-color="#005474"/>
<stop offset="1" stop-color="#063752"/>
</linearGradient>
</defs>
</svg>
